X: 1
T: Birthday, The
M: 2/4
L: 1/8
R: polka
K: Gmaj
|G>A Bg|e2 dB|e>d BA|Bd ed|G>A Bg|e2 dB|e>d BA|1Bd de:|2Bd ed||
|g2G>A|Bd ed|gG Bg|ed Bd|g2G>A|Bd ed|gB ed|BA AG|
g2G>A|Bd ed|gG Bg|ed BA|Be ed|gG GB|BA gB|BA A2||
